X:112
T:ABNYWLL- Father Abney's Will
S:Markham's tune, 1732
Q:1/4=100
L:1/4
M:3/4
K:G
d|B2d|G2G|E2A|F2A|(B^c)d|\
(EA)G|FDD|(G/A/ B)G|c2c|\
(A/B/c)A|d2d/ c/|(B/c/d)e|(Ad)c|BG|]

